X:1
T:E minor          Amos Pilsbury, 1799
T:Nahum Tate and Nicholas Brady, 1698 Amended by Francis Hopkinson, 1767 (Psalm 13)                             66. 66.
T:Trenton
T:Transcribed from The United States Sacred Harmony, 1799.
%%score [ 1 2 3 4 ]
L:1/8
Q:1/4=100
M:3/4
K:G
V:1 treble nm="Tr." snm="Tr."
V:2 treble nm="C." snm="C."
V:3 treble-8 nm="T." snm="T."
V:4 bass nm="B." snm="B."
V:1
 B2 | B4 A2 | (d>c B2) B2 | B4 B2 | B>ABc dB | e4 d2 | d4 d2 | B4 c2 | B4 G>A | B4 B2 | e>dcB cA | %11
w: 1.~How|long shall|I~ _ _ re-|pine? Lord,|must~ _ _ _ I~ *|ev- er|mourn? Hast|thou with-|drawn from *|me? And|wilt~ _ _ _ thou *|
w: 2.~How|long shall|anx- * * ious|thoughts My|heart~ _ _ _ with *|grief op-|press? How|long my|foes in- *|sult, And|I~ _ _ _ have *|
 B4 B2 | B4 G2 | (G>A B2) e2 | (d>c B2) B2 | B6 |] %16
w: ne'er re-|turn? And|wilt~ _ _ thou|ne'er~ _ _ re-|turn?|
w: no re-|dress? And|I~ _ _ have|no~ _ _ re-|dress?|
V:2
 E2 | E4 E2 | E4 [^DF]2 | E4 E2 | G4 G2 | (A2 G2) [FA]2 | B4 B2 | (G2 E2) E2 | E4 E2 | ^D4 =D2 | %10
w: 3.~O,|to my|long- ing|eyes Re-|store thy|won- * ted|light; And|soon,~ _ or|I shall|sleep In|
w: 4.~Re-|store me,|lest they|boast, Twas|their own|strength~ _ o'er-|came: Lest|those~ _ who|vex my|soul Should|
 G>FEF GA | B4 B2 | B4 G2 | (G2 E2) E2 | (F>E ^D2) D2 | E6 |] %16
w: ev- * * * er- *|las- ting|night. In|ev- * er-|las- * * ting|night.|
w: tri- * * * umph *|in my|shame. Should|tri- * umph|in~ _ _ my|shame.|
V:3
 E2 | (B>A G2) F2 | (G>F E2) ^D2 | E4 B2 | d>edc B2 | (c2 B2) A2 | B4 B2 | (ed/c/ B2) A2 | %8
w: 5.~Since|I~ _ _ my|trust~ _ _ have|placed Be-|neath~ _ _ _ thy|mer- * cy's|wing, Thy|help~ _ _ _ will|
w: 6.~Then|shall~ _ _ my|song~ _ _ in-|spired, To|thee,~ _ _ _ my|God,~ _ a-|scend; Who|to~ _ _ _ my|
 (GA/B/ A2) G2 | F4 G>F | E>^DEF GA | Bedc BA | B4 Bc/d/ | (e>c B2) AB/c/ | (B>A G2) F2 | %15
w: come,~ _ _ _ and|then My *|heart~ _ _ _ with *|joy~ _ _ _ shall *|sing. My~ _ _|heart~ _ _ with~ _ _|joy~ _ _ shall|
w: soul,~ _ _ _ dis-|tressed, Such *|boun- * * * ty *|didst~ _ _ _ ex- *|tend. Such~ _ _|boun- * * ty~ _ _|didst~ _ _ ex-|
"^_______________________________________________________\nEdited by B. C. Johnston, 2017\n   1. Grace notes following converted to sixteenth notes in measures 8, 10, and 14 of \nTenor\n.\n   2. Grace note preceding the first note of measure 10 of Tenor  ignored." E6 |] %16
w: sing.|
w: tend.|
V:4
 E,2 | E,4 C,2 | B,,4 ^D,2 | E,4 E,2 | G,4 D,2 | E,4 F,2 | B,,4 B,,2 | E,4 F,2 | %8
 (G,>F, E,2) [E,G,]2 | [B,,D,]4 B,,2 | E,>F,G,F, E,2 | (B,3 A,) G,F, | E,4 E,2 | (E,3 D,) E,>F, | %14
 (G,>A, B,2) B,,2 | E,6 |] %16

